X:14
T: ES WAR EIN MARKGRAF UEBERN RHEIN
N: Z0007
O: Europa, Mitteleuropa, Deutschland, Rheinland
M: 3/4
L: 1/8
K: G
DDD | G3_BAG | F2z
A_Bc | d3c_BA | G2z
DDD | G3_BAG | F2z
A_Bc | d3c_BA | G2z
ddd | d3A_BG | A2z
DG_B | A3c_BA | G2z
ddd | d3A_BG | A2z
DG_B | A3c_BA | G2z

@@@ Tune index: 9706
